!!!COM: Bach, Johann Sebastian
!!!CDT: 1685/3//-1750/7/28/
!!!OTL@@DE: Liebster Jesu, wir sind hier
!!!AGN: 4-Part Chorale
!!!SCT: BH 328
!!!SCT: BWV 373
**harm	**root	**kern	**kern	**kern	**kern
!	!	!bass	!tenor	!alto	!soprno
*	*Iorgan	*Iorgan	*Iorgan	*Iorgan	*Iorgan
*M4/4	*M4/4	*M4/4	*M4/4	*M4/4	*M4/4
*met(c)	*met(c)	*met(c)	*met(c)	*met(c)	*met(c)
*MM60	*MM60	*MM60	*MM60	*MM60	*MM60
*k[f#]	*k[f#]	*k[f#]	*k[f#]	*k[f#]	*k[f#]
*G:	*G:	*G:	*G:	*G:	*G:
*>[A,A,B]	*>[A,A,B]	*>[A,A,B]	*>[A,A,B]	*>[A,A,B]	*>[A,A,B]
*>A	*>A	*>A	*>A	*>A	*>A
=1-	=1-	=1-	=1-	=1-	=1-
I	4GG	4GG	8G	4d	4b
.	.	.	8A	.	.
I	4GG	[4G	4B	4d	8a
.	.	.	.	.	8g
Vb	4DD	8G]	4A	4d	4a
.	.	8F#	.	.	.
V	4DD	8E	4A	4f#	4dd
.	.	8D	.	.	.
=2	=2	=2	=2	=2	=2
I	4GG	8G	8B	4d	4b
.	.	8A	8c	.	.
Ib	4GG	8B	4d	8d	4g
.	.	8G	.	8e	.
V;	2DD;	2D;	2d;	2f#;	2a;
=3	=3	=3	=3	=3	=3
vi	4EE	8EE	4B	4e	4g
.	.	4E	.	.	.
V7c/IV	4GG	.	4B	4fn	4g
.	.	8D	.	.	.
IV	4CC	8CC	4c	4e	4g
.	.	4C	.	.	.
Ib	4GG	.	4G	4d	4g
.	.	8BB	.	.	.
=4	=4	=4	=4	=4	=4
ii	4AA	4AA	4c	8e	4a
.	.	.	.	8f#y	.
I	4GG	8GG	4d	4g	4b
.	.	8BB	.	.	.
ii7b	4AA	8C	8e	4g	2a
.	.	8AA	8c	.	.
V	4DD	4D	8A	4f#	.
.	.	.	16d	.	.
.	.	.	16c	.	.
=5	=5	=5	=5	=5	=5
I;	1GG;	1GG;	1B;	1d;	1g;
*>B	*>B	*>B	*>B	*>B	*>B
!!linebreak: 2
=6:|!	=6:|!	=6:|!	=6:|!	=6:|!	=6:|!
I	4GG	8GG	4G	4B	4d
.	.	4G	.	.	.
Vb	4DD	.	4A	4A	4d
.	.	8F#	.	.	.
viiob/V	4CC#	4E	4G	8B	4e
.	.	.	.	8c#	.
V	4DD	[4D	4A	4d	4f#
=7	=7	=7	=7	=7	=7
vi7d	4EE	4D]	4B	4e	4g
Vb/V	4AA	4C#	4A	4e	8a
.	.	.	.	.	8g
V	4DD	4D	8A	4d	8f#
.	.	.	8G	.	8e
V;	4DD;	4D;	4F#;	4A;	4d;
=8	=8	=8	=8	=8	=8
Ib	4GG	8BB	4.G	8d	4g
.	.	8GG	.	8B	.
ii7	8AA	8AA	.	8c	4g
V7b/IV	8GG	8BB	8Fn	8d	.
IV	4CC	8C	8E	4e	4g
.	.	8D	8F#	.	.
IV	4CC	8C	8G	4e	4g
.	.	8BB	16A	.	.
.	.	.	16B	.	.
=9	=9	=9	=9	=9	=9
ii	4AA	4AA	4c	8e	4a
.	.	.	.	8f#	.
I	4GG	4GG	4d	[4g	4b
V	2DD	2D	4.d	8g]	2a
.	.	.	.	8e	.
.	.	.	.	4f#	.
.	.	.	8c	.	.
=10	=10	=10	=10	=10	=10
I;	1GG;	1GG;	1B;	1d;	1g;
==	==	==	==	==	==
*-	*-	*-	*-	*-	*-
!!chor2scor: -l 2 -s 0.6 -o %b.pmx
!!!YEC: Copyright 1994, David Huron
!!!YEC: Changes/Additions 2001 by Craig Stuart Sapp
!!!YEN: United States of America
!!!SMA: 371 Bach Chorales, edited by Ludwig Erk, C.F. Peters
!!!PDT: 1850, 1865
!!!ONB: Harmony and Root analysis done manually
